src/icons/arrow-swap.svg

<svg xmlns="http://www.w3.org/2000/svg" width="512" height="512" viewBox="0 0 512 512">
    <path d="M96 309.5v40c0 3.7 3 6.7 6.7 6.7h206.7v53.3l106.6-80-106.7-80v53.3H102.7c-3.7 0-6.7 3-6.7 6.7zm320-120v-40c0-3.7-3-6.7-6.7-6.7H202.7V89.5L96 169.5l106.7 80v-53.3h206.7c3.6 0 6.6-3 6.6-6.7z"/>
</svg>

<?xml version="1.0" encoding="UTF-8"?>
<svg width="512px" height="512px" viewBox="0 0 512 512" version="1.1" xmlns="http://www.w3.org/2000/svg" xmlns:xlink="http://www.w3.org/1999/xlink">
    <!-- Generator: Sketch 62 (91390) - https://sketch.com -->
    <title>arrow-swap</title>
    <desc>Created with Sketch.</desc>
    <g id="arrow-swap" stroke="none" stroke-width="1" fill="none" fill-rule="evenodd">
        <path d="M96,309.5 L96,349.5 C96,353.2 99,356.2 102.7,356.2 L309.4,356.2 L309.4,409.5 L416,329.5 L309.3,249.5 L309.3,302.8 L102.7,302.8 C99,302.8 96,305.8 96,309.5 Z M416,189.5 L416,149.5 C416,145.8 413,142.8 409.3,142.8 L202.7,142.8 L202.7,89.5 L96,169.5 L202.7,249.5 L202.7,196.2 L409.4,196.2 C413,196.2 416,193.2 416,189.5 Z" id="Shape" fill="#000000" fill-rule="nonzero"></path>
    </g>
</svg>
